X: 482
T: MÄDCHEN'S WUNSCH	 Op. 74
C: Fryderyk Chopipn
%%abc-version 2.0
%%abcx-abcm2ps-target-version 5.9.1 (29 Sep 2008)
%%abc-creator hum2abc beta
%%abcx-conversion-date 2021/10/03 11:24:02
%%abc-edited-by Jędrzej Mróz
%%abc-edited-by Mateusz Mrugas
%%abcx-initial-encoding-date 2020-01-29
%%humdrum-veritas 3791372352
%%humdrum-veritas-data 3813212145
%%linebreak <none>
%%barnumbers 0
L: 1/4
M: 3/4
N: Derived from 074-1-Sam-001.krn
P: 16 | Polnische Lieder | von Witwicki, Zaleski, Mickiewicz etc. | für eine Singstimme | mit Begleitung des Pianoforte
Q: "M. M. [quarter] = 112." 1/4=112
V: 1 clef=treble
V: 2 clef=treble
V: 3 clef=bass
K: G
[V:1] z [I:setbarnb 1]| 
[V:2] d/f/ | 
[V:3] z | 
[V:1] z3 | 
[V:2] !trill!ed/A/ d/f/ | 
[V:3] z[CD,][CD,] & G,,3 | 
[V:1] z3 | 
[V:2] !trill!ed/G/ d/f/ | 
[V:3] z[B,D,][B,D,] & G,,3 | 
[V:1] z3 | 
[V:2] !trill!ed/A/ B/D/ | 
[V:3] z[CD,][CD,] & G,,3 | 
[V:1] z3 | 
[V:2] G2d/f/ | 
[V:3] z[B,D,][B,D,] & G,,3 | 
[V:1] z3 | 
[V:2] !trill!ed/A/ d/f/ | 
[V:3] z[CD,][CD,] & G,,3 | 
[V:1] z3 | 
[V:2] !trill!ed/G/ d/f/ | 
[V:3] z[B,D,][B,D,] & G,,3 | 
[V:1] z3 | 
[V:2] !trill!ed/A/ B/D/ | 
[V:3] z[CD,][CD,] & G,,3 | 
[V:1] z3 ||  
[V:2] G2z ||  
[V:3] z[B,D,]z & G,,2z ||  
[V:1] GFE | 
[V:2] z[E_B,0G,0][EB,0G,0] | 
[V:3] [^C,,3^C,03] | 
[V:1] E2D | 
[V:2] z[D=B,0G,0][DB,0G,0] | 
[V:3] [D,,3D,03] | 
[V:1] D/ c/cc | 
[V:2] z[FDC][FDC] | 
[V:3] [D,,3D,03] | 
[V:1] Bdz | 
[V:2] z[GDB,][GDB,] | 
[V:3] [G,,3G,03] | 
[V:1] GFE | 
[V:2] z[E_B,0G,0][EB,0G,0] | 
[V:3] [^C,3^C,,03] | 
[V:1] E>DD | 
[V:2] z[D=B,0G,0][DB,0G,0] | 
[V:3] [D,3D,,03] | 
[V:1] D/ c/EF | 
[V:2] z[FDC][FDC] | 
[V:3] [D,3D,,03] | 
[V:1] AGz | 
[V:2] z[GD0B,0]z | 
[V:3] [G,2G,,02]!accent!A,, | 
[V:1] F>^DB, | 
[V:2] z[^DB,0F,0][DB,0F,0] | 
[V:3] B,,3 | 
[V:1] E>FG | 
[V:2] z[EB,0G,0][EB,0G,0] | 
[V:3] [E,3E,,03] | 
[V:1] F>^DB, | 
[V:2] z[^DB,0F,0][DB,0F,0] | 
[V:3] [B,,3B,,,03] | 
[V:1] E>FG | 
[V:2] z[EB,0G,0][EB,0G,0] | 
[V:3] [E,3E,,03] | 
[V:1] GG/ G/ F/ G<!fermata!BA/ | 
[V:2] !fermata![E3^C3A,3G,3]x2 | 
[V:3] [A,,3A,,,3]x2 | 
[V:1] GFE | 
[V:2] z[E^C0G,0][EC0G,0] | 
[V:3] [A,,3A,,,03] | 
[V:1] E2D | 
[V:2] z!accent![E=C0F,0][DC0F,0] | 
[V:3] [D,3D,,03] | 
[V:1] D/ c/cc | 
[V:2] z[FD0C0][FD0C0] | 
[V:3] D,3 | 
[V:1] B2d | 
[V:2] z[GD0B,0][GD0B,0] | 
[V:3] [G,3G,,03] | 
[V:1] GFE | 
[V:2] z[E_B,0G,0][EB,0G,0] | 
[V:3] ^C,3 | 
[V:1] E2D | 
[V:2] z[DB,0G,0][DB,0G,0] | 
[V:3] D,3 | 
[V:1] D/ c/EF | 
[V:2] z[FDC][FDC] | 
[V:3] D,3 | 
[V:1] AGz ||  
[V:2] z[GD0B,0]d/f/ ||  
[V:3] [G,2G,,02]z ||  
[V:1] z3 | 
[V:2] !trill!ed/A/ d/f/ | 
[V:3] z[CD,][CD,] & G,,3 | 
[V:1] z3 | 
[V:2] !trill!ed/G/ d/f/ | 
[V:3] z[B,D,][B,D,] & G,,3 | 
[V:1] z3 | 
[V:2] !trill!ed/A/ B/D/ | 
[V:3] z[CD,][CD,] & G,,3 | 
[V:1] z3 | 
[V:2] G2d/f/ | 
[V:3] z[B,D,][B,D,] & G,,3 | 
[V:1] z3 | 
[V:2] !trill!ed/A/ d/f/ | 
[V:3] z[CD,][CD,] & G,,3 | 
[V:1] z3 | 
[V:2] !trill!ed/G/ d/f/ | 
[V:3] z[B,D,][B,D,] & G,,3 | 
[V:1] z3 | 
[V:2] !trill!ed/A/ B/D/ | 
[V:3] z[CD,][CD,] & G,,3 | 
[V:1] z3 ||  
[V:2] G2z ||  
[V:3] z[B,D,]z & G,,2z ||  
[V:1] GFE | 
[V:2] z[E_B,0G,0][EB,0G,0] | 
[V:3] [^C,,3^C,03] | 
[V:1] E2D | 
[V:2] z[D=B,0G,0][DB,0G,0] | 
[V:3] [D,,3D,03] | 
[V:1] D/ c/cc | 
[V:2] z[FDC][FDC] | 
[V:3] [D,,3D,03] | 
[V:1] Bdz | 
[V:2] z[GDB,][GDB,] | 
[V:3] [G,,3G,03] | 
[V:1] GFE | 
[V:2] z[E_B,0G,0][EB,0G,0] | 
[V:3] [^C,3^C,,03] | 
[V:1] E>DD | 
[V:2] z[D=B,0G,0][D=B,0G,0] | 
[V:3] [D,3D,,03] | 
[V:1] D/ c/EF | 
[V:2] z[FDC][FDC] | 
[V:3] [D,3D,,03] | 
[V:1] AGz | 
[V:2] z[GD0B,0]z | 
[V:3] [G,2G,,02]A,, | 
[V:1] F>^DB, | 
[V:2] z[^DB,0F,0][DB,0F,0] | 
[V:3] B,,3 | 
[V:1] E>FG | 
[V:2] z[EB,0G,0][EB,0G,0] | 
[V:3] [E,3E,,03] | 
[V:1] F>^DB, | 
[V:2] z[^DB,0F,0][DB,0F,0] | 
[V:3] [B,,3B,,,03] | 
[V:1] E>FG | 
[V:2] z[EB,0G,0][EB,0G,0] | 
[V:3] [E,3E,,03] | 
[V:1] !fermata!GG/ G/ F/ G<!fermata!BA/ | 
[V:2] !fermata![E3^C3A,3G,3]x2 | 
[V:3] [A,,3A,,,3]x2 | 
[V:1] GFE | 
[V:2] z[E^C0G,0][EC0G,0] | 
[V:3] [A,,3A,,,03] | 
[V:1] E2D | 
[V:2] z!accent![E=C0F,0][DC0F,0] | 
[V:3] [D,3D,,03] | 
[V:1] D/ c/cc | 
[V:2] z[FD0C0][FD0C0] | 
[V:3] D,3 | 
[V:1] B2d | 
[V:2] z[GD0B,0][GD0B,0] | 
[V:3] [G,3G,,03] | 
[V:1] GFE | 
[V:2] z[E_B,0G,0][EB,0G,0] | 
[V:3] ^C,3 | 
[V:1] E2D | 
[V:2] z[D=B,0G,0][DB,0G,0] | 
[V:3] D,3 | 
[V:1] D/ c/EF | 
[V:2] z[FDC][FDC] | 
[V:3] D,3 | 
[V:1] AGz ||  
[V:2] z[GD0B,0]d/f/ ||  
[V:3] [G,2G,,02]z ||  
[V:1] z3 | 
[V:2] !trill!ed/A/ d/f/ | 
[V:3] z[CD,][CD,] & G,,3 | 
[V:1] z3 | 
[V:2] !trill!ed/G/ d/f/ | 
[V:3] z[B,D,][B,D,] & G,,3 | 
[V:1] z3 | 
[V:2] !trill!ed/A/ B/D/ | 
[V:3] z[CD,][CD,] & G,,3 | 
[V:1] z3 | 
[V:2] G2d/f/ | 
[V:3] z[B,D,][B,D,] & G,,3 | 
[V:1] z3 | 
[V:2] !trill!ed/A/ d/f/ | 
[V:3] z[CD,][CD,] & G,,3 | 
[V:1] z3 | 
[V:2] !trill!ed/G/ d/f/ | 
[V:3] z[B,D,][B,D,] & G,,3 | 
[V:1] z3 | 
[V:2] !trill!ed/A/ B/D/ | 
[V:3] z[CD,][CD,] & G,,3 | 
[V:1] z3 |]  
[V:2] G2z |]  
[V:3] z[B,D,]z & G,,2z |]
